Adwaita++/apps/16/gtkdialog.svg

<svg height="16" width="16" xmlns="http://www.w3.org/2000/svg">
  <g enable-background="new" fill="none" stroke="#474747" transform="matrix(.11991745 0 0 .11991745 -10.01208 -10.46729)">
    <path d="m8.2148438.5-6.7148438 3.6152344v.2871094 7.4824222l6.7148438 3.615234 6.7167972-3.615234v-7.7695316zm0 1.0898438 5.2246092 2.8125-5.2246092 2.8125-5.2226563-2.8125zm-5.7558594 3.6152343 5.7558594 3.0996094 5.7558592-3.0996094v6.1054689l-5.7558592 3.099609-5.7558594-3.099609z" fill="#474747" stroke-width=".95934" transform="matrix(8.3390699 0 0 8.3390699 83.491435 87.287463)"/>
    <path d="m152 148v64" fill="none" stroke-width="8"/>
  </g>
</svg>

<?xml version="1.0" encoding="UTF-8" standalone="no"?>
<svg
   xmlns:dc="http://purl.org/dc/elements/1.1/"
   xmlns:cc="http://creativecommons.org/ns#"
   xmlns:rdf="http://www.w3.org/1999/02/22-rdf-syntax-ns#"
   xmlns:svg="http://www.w3.org/2000/svg"
   xmlns="http://www.w3.org/2000/svg"
   xmlns:sodipodi="http://sodipodi.sourceforge.net/DTD/sodipodi-0.dtd"
   xmlns:inkscape="http://www.inkscape.org/namespaces/inkscape"
   width="16"
   height="16"
   version="1.1"
   id="svg12"
   sodipodi:docname="model.svg"
   inkscape:version="0.92.4 (5da689c313, 2019-01-14)">
  <metadata
     id="metadata18">
    <rdf:RDF>
      <cc:Work
         rdf:about="">
        <dc:format>image/svg+xml</dc:format>
        <dc:type
           rdf:resource="http://purl.org/dc/dcmitype/StillImage" />
      </cc:Work>
    </rdf:RDF>
  </metadata>
  <defs
     id="defs16" />
  <sodipodi:namedview
     pagecolor="#ffffff"
     bordercolor="#666666"
     borderopacity="1"
     objecttolerance="10"
     gridtolerance="10"
     guidetolerance="10"
     inkscape:pageopacity="0"
     inkscape:pageshadow="2"
     inkscape:window-width="1920"
     inkscape:window-height="1016"
     id="namedview14"
     showgrid="false"
     inkscape:zoom="14.75"
     inkscape:cx="8"
     inkscape:cy="8"
     inkscape:window-x="0"
     inkscape:window-y="27"
     inkscape:window-maximized="1"
     inkscape:current-layer="g8" />
  <g
     transform="translate(-192,-180)"
     id="g10">
    <g
       transform="matrix(0.11991745,0,0,0.11991745,181.98792,169.53271)"
       style="fill:none;stroke:#474747;enable-background:new"
       id="g8">
      <path
         style="color:#000000;font-style:normal;font-variant:normal;font-weight:normal;font-stretch:normal;font-size:medium;line-height:normal;font-family:sans-serif;font-variant-ligatures:normal;font-variant-position:normal;font-variant-caps:normal;font-variant-numeric:normal;font-variant-alternates:normal;font-feature-settings:normal;text-indent:0;text-align:start;text-decoration:none;text-decoration-line:none;text-decoration-style:solid;text-decoration-color:#000000;letter-spacing:normal;word-spacing:normal;text-transform:none;writing-mode:lr-tb;direction:ltr;text-orientation:mixed;dominant-baseline:auto;baseline-shift:baseline;text-anchor:start;white-space:normal;shape-padding:0;clip-rule:nonzero;display:inline;overflow:visible;visibility:visible;opacity:1;isolation:auto;mix-blend-mode:normal;color-interpolation:sRGB;color-interpolation-filters:linearRGB;solid-color:#000000;solid-opacity:1;vector-effect:none;fill:#474747;fill-opacity:1;fill-rule:nonzero;stroke:#474747;stroke-width:0.95933962;stroke-linecap:butt;stroke-linejoin:miter;stroke-miterlimit:4;stroke-dasharray:none;stroke-dashoffset:0;stroke-opacity:1;color-rendering:auto;image-rendering:auto;shape-rendering:auto;text-rendering:auto;enable-background:accumulate"
         d="M 8.2148438 0.5 L 1.5 4.1152344 L 1.5 4.4023438 L 1.5 11.884766 L 8.2148438 15.5 L 14.931641 11.884766 L 14.931641 4.1152344 L 8.2148438 0.5 z M 8.2148438 1.5898438 L 13.439453 4.4023438 L 8.2148438 7.2148438 L 2.9921875 4.4023438 L 8.2148438 1.5898438 z M 2.4589844 5.2050781 L 8.2148438 8.3046875 L 13.970703 5.2050781 L 13.970703 11.310547 L 8.2148438 14.410156 L 2.4589844 11.310547 L 2.4589844 5.2050781 z "
         transform="matrix(8.3390699,0,0,8.3390699,83.491435,87.287463)"
         id="path2" />
      <path
         d="m 152,148 v 64"
         style="fill:none;stroke:#474747;stroke-width:8"
         id="path6" />
    </g>
  </g>
</svg>
